X:1
T:By and By
T:By and By
T:John Robson Sweney
T:Anna Holyoke Cutts Howard, 1881
T:Public Domain Courtesy of the Cyber Hymnal™
T:Public Domain Courtesy of the Cyber Hymnal™
C:John Robson Sweney
Z:Public Domain
Z:Courtesy of the Cyber Hymnal™
%%score ( 1 2 ) ( 3 4 )
L:1/8
Q:1/4=108
M:2/2
K:F
V:1 treble 
V:2 treble 
V:3 bass 
V:4 bass 
V:1
 [Ac]3 [GB] | [FA]2 [GB]2 [FA]2 [CG]2 | [CF]4 C2 C2 | [CF]4 [EG]2 [EG]2 | [FA]4 [FA]2 [FA]2 | %5
w: 1.~There will|be no sin nor|pain By and|by, by and|by; All that’s|
w: 2.~Then life’s|les- sons we shall|learn By and|by, by and|by; Je- sus’|
w: 3.~We shall|see Him eye to|eye By and|by, by and|by; We shall|
 [FB]2 [FB]2 [FB]2 [Fd]2 x8 | [Fc]4 [Fc]2 [FA]2 | [CF]4 F2 [FA]2 | [EG]4 [EG]2 [FA]2 | %9
w: dark will be made|plain By and|by, by and|by; For the|
w: words we shall dis-|cern By and|by, by and|by; He will|
w: meet Him in the|sky By and|by, by and|by; We shall|
 [GB]2 [GB]2 [FA]2 [EG]2 | [FA]4 [FA]2 [GB]2 | [Ac]2 [Ac]2 [GB]2 [FA]2 | [EG]4 [EA]2 [EG]2 | %13
w: Lord will come a-|gain, Oh, how|glo- ri- ous His|reign! Like the|
w: ban- ish ev- ery|sigh, Let us|lift our heads on|high; Our re-|
w: hear His ten- der|tone, We shall|be no more a-|lone; He is|
 F2 [EG]2 [FA]2 [EB]2 | (c2 f2) [Fd]2 [GB]2 | [FA]4 [EA]3 [EG] | F8 ||"^Refrain" [FA]6 [CG]2 | %18
w: sun- shine af- ter|rain, * By and|by, by and|by.||
w: demp- tion draw- eth|nigh, * By and|by, by and|by.|By and|
w: com- ing to His|own * By and|by, by and|by.||
 ([CF]4 C4) | [Ac]6 [GB]2 | [FA]4 [CF]2 [CF]2 | [EG]2 [EG]2 [EG]2 [FA]2 | [GB]4 [EG]2 [EG]2 | %23
w: |||||
w: by, *|by and|by, With our|loved ones we shall|meet, And the|
w: |||||
 [FA]2 [FA]2 [FA]2 [EB]2 | [Fc]4 [Fc]2 [Fc]2 | [Fd]2 [Fd]2 [Fd]2 [Bf]2 | ([Ac]2 [FA]2) F2 [FG]2 | %27
w: ||||
w: sto- ry oft re-|peat, Cast our|crowns at Je- sus’|feet, * By and|
w: ||||
 [FA]4 [EA]3 [CG] | [CF]4 |] %29
w: ||
w: by, by and|by.|
w: ||
V:2
 x4 | x8 | x4 C2 C2 | x8 | x8 | x16 | x8 | x4 F2 x2 | x8 | x8 | x8 | x8 | x8 | F2 x6 | F4 x4 | x8 | %16
 F8 || x8 | x8 | x8 | x8 | x8 | x8 | x8 | x8 | x8 | x4 F2 x2 | x8 | x4 |] %29
V:3
 [F,C]3 [F,C] | [F,C]2 [F,C]2 [F,C]2 [F,B,]2 | [F,A,]4 [F,A,]2 [F,A,]2 | [A,,C]4 [C,C]2 [C,C]2 | %4
 [F,C]4 [F,C]2 [F,C]2 | [B,D]2 [B,D]2 [B,D]2 B,2 [A,C]4 [A,C]2 [F,C]2 | [F,A,]4 [D,=B,]2 [D,B,]2 | %7
 [C,C]4 [C,C]2 [C,C]2 | [C,C]2 [C,C]2 [C,C]2 [C,C]2 | [F,C]4 [F,C]2 [F,C]2 | %10
 [F,F]2 [F,F]2 [E,C]2 [F,C]2 | [C,C]4 [C,C]2 [C,B,]2 | [D,A,]2 [C,C]2 [F,C]2 [G,C]2 | %13
 [A,C]4 B,2 [B,D]2 | C4 [C,C]3 [C,B,] | [F,A,]8 | [F,C]6 [F,B,]2 || [F,A,]4 [F,A,]4 | %18
 [F,F]6 [F,D]2 | [F,C]4 [F,A,]2 [F,A,]2 | [C,C]2 [C,C]2 [C,C]2 [C,C]2 | [C,C]4 [C,C]2 [C,C]2 | %22
 [F,C]2 [C,C]2 [C,C]2 [G,C]2 | [A,C]4 [A,C]2 [A,C]2 | B,2 B,2 B,2 [B,,D]2 | %25
 [F,C]4 [D,=B,]2 [D,B,]2 | [C,C]4 [C,C]3 [C,B,] | [F,A,]4 x4 | x4 |] %29
V:4
 x4 | x8 | x8 | x8 | x8 | x6 B,2 x8 | x8 | x8 | x8 | x8 | x8 | x8 | x8 | x4 B,2 x2 | C4 x4 | x8 | %16
 x8 || x8 | x8 | x8 | x8 | x8 | x8 | x8 | B,2 B,2 B,2 x2 | x8 | x8 | x8 | x4 |] %29

